sprites/streets-v8/_svg/airport-11.svg

<?xml version="1.0" encoding="utf-8"?>
<!-- Generator: Adobe Illustrator 17.1.0, SVG Export Plug-In . SVG Version: 6.00 Build 0)  -->
<!DOCTYPE svg PUBLIC "-//W3C//DTD SVG 1.1//EN" "http://www.w3.org/Graphics/SVG/1.1/DTD/svg11.dtd">
<svg version="1.1"
	 id="svg2" xmlns:svg="http://www.w3.org/2000/svg" xmlns:cc="http://creativecommons.org/ns#" xmlns:dc="http://purl.org/dc/elements/1.1/" xmlns:rdf="http://www.w3.org/1999/02/22-rdf-syntax-ns#"
	 xmlns="http://www.w3.org/2000/svg" xmlns:xlink="http://www.w3.org/1999/xlink" x="0px" y="0px" width="19px" height="19px"
	 viewBox="0 0 19 19" enable-background="new 0 0 19 19" xml:space="preserve">
<path id="rect4" fill="#FFFFFF" d="M3,0h13c1.7,0,3,1.3,3,3v13c0,1.7-1.3,3-3,3H3c-1.7,0-3-1.3-3-3V3C0,1.3,1.3,0,3,0z"/>
<path id="rect6" fill="#9C8EA4" d="M3,1h13c1.1,0,2,0.9,2,2v13c0,1.1-0.9,2-2,2H3c-1.1,0-2-0.9-2-2V3C1,1.9,1.9,1,3,1z"/>
<g id="g8" transform="translate(4,4)">
	<path id="path7712-0" fill="#FFFFFF" d="M11,5v1.5L6.5,6v1.5C6.5,8.5,6,9,6,9l2,1v1l-2.5-0.5L3,11v-1l2-1c0,0-0.5-0.5-0.5-1.5V6
		L0,6.4V5l4.5-1.8V1.5c0-1,0.5-1.5,1-1.5s1,0.5,1,1.5v1.7L11,5z"/>
</g>
</svg>

<?xml version="1.0" encoding="UTF-8" standalone="no"?>
<svg
   xmlns:dc="http://purl.org/dc/elements/1.1/"
   xmlns:cc="http://creativecommons.org/ns#"
   xmlns:rdf="http://www.w3.org/1999/02/22-rdf-syntax-ns#"
   xmlns:svg="http://www.w3.org/2000/svg"
   xmlns="http://www.w3.org/2000/svg"
   id="svg2"
   width="19"
   height="19"
   viewBox="0 0 19 19"
   version="1.1">
  <metadata
     id="metadata14">
    <rdf:RDF>
      <cc:Work
         rdf:about="">
        <dc:format>image/svg+xml</dc:format>
        <dc:type
           rdf:resource="http://purl.org/dc/dcmitype/StillImage" />
      </cc:Work>
    </rdf:RDF>
  </metadata>
  <defs
     id="defs12" />
  <rect
     id="rect4"
     ry="3"
     rx="3"
     height="19"
     width="19"
     y="0"
     x="0"
     style="fill:#ffffff;stroke:none;" />
  <rect
     id="rect6"
     ry="2"
     rx="2"
     height="17"
     width="17"
     y="1"
     x="1"
     style="fill:#9c8ea4;stroke:none;" />
  <g
     id="g8"
     transform="translate(4,4)">
    <metadata     id="metadata7"><rdf:RDF><cc:Work         rdf:about=""><dc:format>image/svg+xml</dc:format><dc:type           rdf:resource="http://purl.org/dc/dcmitype/StillImage" /><dc:title /></cc:Work></rdf:RDF></metadata><defs     id="defs5" /><path     d="M 11,5 11,6.5 6.5,6 6.5,7.5 C 6.5,8.5 6,9 6,9 L 8,10 8,11 5.5,10.5 3,11 3,10 5,9 C 5,9 4.5,8.5 4.5,7.5 L 4.5,6 0,6.4 0,5 4.5,3.2 4.5,1.5 C 4.5,0.5 5,0 5.5,0 c 0.5,0 1,0.5 1,1.5 l 0,1.7 z"     id="path7712-0"     style="fill:#ffffff;fill-opacity:1" />
  </g>
</svg>
